X: 195
T: High Drive
C:Gordon Duncan
R: reel
M: C|
L: 1/8
K:Dmaj
A |"D" d3 e fedA |"G" B/B/B gB BAGB |"D" A/A/A Ad fedf |"A" eA A/A/A afge |
"D"dcde fedA |"G" B2 gB BAGB |"D" AFAd fedf |1"A" edce "D"d3 :|2"A"edce "D"defg||
"D"a2 ag afdA |"G" B2 gB BAGB | "D"~A3d fedf |"A" eA A/A/A efge |
"D"a2 ag afdA |"G" B2 gB BAGB |"D" AFAd fedf |"A" edce "D"defg|
"D"a2 ag afdA |"G" B2 gB BAGB |"D" ~A3d fedf |"A" eA A/A/A afge |
"D"dcde fedA |"G" B/B/B gB BAGB |"D" AFAd fedf |"A" edce "D"d2 dA ||
|:"D"dA"A"eA "D"fA A/A/A |"G" gBBA Bgag |"D" fA A/A/A afdf |"A" eA A/A/A afge |
"D"dA"A"eA "D"fA A/A/A |"G" gBBA Bgag |"D" fA A/A/A afdf |1 "A"edce "D"d2 dA :|2"A"edce "D"defg||
|:"D"adda ddad |"G" gddg ddgd |"D" fddf ddfd | "A"edde "D"defg |
"D"adda ddad |"G" gddg ddgd  |"D" A2 Ad fedf |"A" edce "D"d2 df :|


